svg/battery-fill.svg

<svg width="32" height="32" viewBox="0 0 32 32" fill="none" xmlns="http://www.w3.org/2000/svg">
<path fill-rule="evenodd" clip-rule="evenodd" d="M14 8.02362C14.623 8.00745 15.2887 8 16 8C26.0833 8 27 9.5 27 16C27 22.5 26.0833 24 16 24C15.2887 24 14.623 23.9926 14 23.9764C5.7919 23.7635 5 22.0414 5 16C5 9.95856 5.7919 8.23651 14 8.02362ZM7 16C6.99951 17.5814 7.03903 18.6678 7.24951 19.5423C7.41556 20.341 7.50861 20.5612 7.96548 20.8737C8.3237 21.1592 8.99329 21.4717 10.3453 21.6895C11.7291 21.9155 13.5027 21.9995 15.9492 22H16C18.4727 22.0005 20.2614 21.9171 21.6547 21.6895C23.0067 21.4717 23.6763 21.1592 24.0345 20.8737C24.4914 20.5612 24.5844 20.341 24.7505 19.5423C24.961 18.6678 25.0005 17.5814 25 16C25.0005 14.4186 24.961 13.3322 24.7505 12.4577C24.5844 11.659 24.4914 11.4388 24.0345 11.1263C23.6763 10.8408 23.0067 10.5283 21.6547 10.3105C20.2614 10.0829 18.4727 9.99945 16 10H15.9492C13.5027 10.0005 11.7291 10.0845 10.3453 10.3105C8.99329 10.5283 8.3237 10.8408 7.96548 11.1263C7.50861 11.4388 7.41556 11.659 7.24951 12.4577C7.03903 13.3322 6.99951 14.4186 7 16Z" fill="black"/>
<path fill-rule="evenodd" clip-rule="evenodd" d="M8 16C7.9996 17.3178 8.03253 18.2232 8.20793 18.9519C8.3463 19.6175 8.42384 19.801 8.80457 20.0614C9.10309 20.2994 9.66107 20.5598 10.7878 20.7413C11.9409 20.9296 13.9189 20.9995 15.9577 21H16C18.0606 21.0005 20.0512 20.9309 21.2122 20.7413C22.3389 20.5598 22.8969 20.2994 23.1954 20.0614C23.5762 19.801 23.6537 19.6175 23.7921 18.9519C23.9675 18.2232 24.0004 17.3178 24 16C24.0004 14.6822 23.9675 13.7768 23.7921 13.0481C23.6537 12.3825 23.5762 12.199 23.1954 11.9386C22.8969 11.7006 22.3389 11.4402 21.2122 11.2587C20.0512 11.0691 18.0606 10.9995 16 11H15.9577C13.9189 11.0005 11.9409 11.0704 10.7878 11.2587C9.66107 11.4402 9.10309 11.7006 8.80457 11.9386C8.42384 12.199 8.3463 12.3825 8.20793 13.0481C8.03253 13.7768 7.9996 14.6822 8 16Z" fill="black"/>
<path d="M30 16C30 17.1046 29.1046 18 28 18V14C29.1046 14 30 14.8954 30 16Z" fill="black"/>
</svg>

<svg width="32" height="32" fill="none" xmlns="http://www.w3.org/2000/svg"><path fill-rule="evenodd" clip-rule="evenodd" d="M14 8.024A77.397 77.397 0 0 1 16 8c10.083 0 11 1.5 11 8s-.917 8-11 8c-.711 0-1.377-.007-2-.024-8.208-.212-9-1.935-9-7.976s.792-7.763 9-7.976zM7 16c0 1.581.039 2.668.25 3.542.166.799.259 1.02.715 1.332.359.285 1.028.598 2.38.816 1.384.226 3.158.31 5.604.31H16c2.473 0 4.261-.083 5.655-.31 1.352-.218 2.021-.53 2.38-.816.456-.313.55-.533.715-1.332.211-.874.25-1.96.25-3.542 0-1.581-.039-2.668-.25-3.542-.166-.799-.259-1.02-.715-1.332-.359-.285-1.028-.598-2.38-.816C20.26 10.083 18.473 10 16 10h-.05c-2.447 0-4.22.085-5.605.31-1.352.218-2.021.53-2.38.816-.456.313-.55.533-.715 1.332C7.039 13.332 7 14.418 7 16z" fill="#000"/><path fill-rule="evenodd" clip-rule="evenodd" d="M8 16c0 1.318.033 2.223.208 2.952.138.665.216.849.597 1.11.298.237.856.498 1.983.68 1.153.188 3.13.258 5.17.258H16c2.06 0 4.051-.07 5.212-.259 1.127-.181 1.685-.442 1.983-.68.381-.26.459-.444.597-1.11.175-.728.208-1.633.208-2.951s-.032-2.223-.208-2.952c-.138-.665-.216-.849-.597-1.11-.298-.237-.856-.498-1.983-.68C20.052 11.07 18.061 11 16 11h-.042c-2.04 0-4.017.07-5.17.259-1.127.181-1.685.442-1.983.68-.381.26-.459.444-.597 1.11C8.033 13.776 8 14.681 8 16z" fill="#000"/><path d="M30 16a2 2 0 0 1-2 2v-4a2 2 0 0 1 2 2z" fill="#000"/></svg>
